X:257
T: UND E BISSERLE LIEB UND E BISSERLE TREU
N: Z0255A
O: Europa, Mitteleuropa, Deutschland, bayrisches Gebirge
R: lyrisches Lied, Romanze
M: 3/8
L: 1/16
K: F
FA | c2c3c | d2c3A | c2B3G | A4
FA | A2G3G | G2F3F | G2c3E | F4

